X: 46
T: Polly Cleveland's Favourite
R: reel
M: 2/4
L: 1/8
Z: 2011 John Chambers <jc:trillian.mit.edu>
B: Charles & Samuel Thompson eds "Twenty Four Country Dances", London 1774, p.23 #2
K: D
% - - - - - - - - - - - - - - - - - - - - - - - - -
|:\
d2 Tc2 | (dA) (FD) | dfed | c2 TB2 |\
AceG | FdcB | A2T^G2 | A4 :|
|:\
AB cd | e2f2 | gbag | Tf4 |\
egfc | dBA2 | TB3c | dBAG |\
F2TE2 | D4 :|
% - - - - - - - - Dance description - - - - - - - -
%%begintext align
%% The first and 2d Cu: set and Change sides .|. set and lead
%% to your own side :|. cross over foot it right Hands and
%% left .|: :|:
%%endtext

%%sep 1 1 500
